X: 1802
T: Sultânîyegâh Aranağme (Nîmsofyan)
C: ?
O: Turkey
F: http://compmusic.upf.edu/node/140
N: sultaniyegah--aranagme--nimsofyan--1--
N: makam= sultaniyegah
N: form= aranagme
N: usul= nimsofyan = 2/4
M: 2/4
L: 1/16
K: C _B ^c  
Q: 1/4=90
%%MIDI tuningsystem comma53
A4 d4  | e2f4e2  | d2c4e2  | d8  | e4 f4  | g2e4g2  | \
w:  ARANAĞME  |   |   |   |   |   | 
f2d4fe  | e8  | .e4 .g4  | 
w:   |   |   | 
f2e4d2  | .d4 .f4  | e2c4A2  | A4 A4  | A2f4e2  | \
w:   |   |   |   |   | 
d2c4ed  | d8  | A4 d4  | e2f4e2  | 
w:   |   |  ARANAĞME  |   | 
d2c4e2  | d8  | e4 f4  | g2e4g2  | f2d4fe  | e8  | \
w:   |   |   |   |   |   | 
.e4 .g4  | f2e4d2  | .d4 .f4  | 
w:   |   |   | 
e2c4A2  | A4 A4  | A2f4e2  | d2c4ed  | d8  | |


